X:1
T:Bezeichnung standardisiert: Jamaica;
T:Bezeichnung standardisiert: Jamaica;
T:24 | Ponemitige. In anderer Quelle: Jamaica, Playford, Dancing Master, 4th Ed., 1670 (Anm. S. Wascher);  La Bonne Amitie, R. A. Feuillet 1706 (Anm. S. Wascher);  La Bonne Amitie, E.A. Jayme, Wolfenb\"uttel 1717 (Anm. S. Wascher);
T:Urheber unbekannt Erstbeleg: 1670 (Datum in der schriftlichen Quelle)
C:Urheber unbekannt
C:Erstbeleg: 1670 (Datum in der schriftlichen Quelle)
%%score 1 2
L:1/8
M:2/2
K:F
V:1 treble 
V:2 bass 
V:1
 F2 F2 A2 A2 | c2 de f4 | c2 c2 dcBA | G3 F F4 :: f2 f2 e2 e2 | d2 d2 c4 | f2 f2 e2 e2 | d3 c c4 | %8
 f2 f2 e2 e2 | d2 d2 c2 c2 | B2 B2 A2 A2 | G3 F F4 :| %12
V:2
[K:C]"^-40,11[sic]" !fermata!F,2 F,2 A,,2 F,,2 | C,2 C,,2 F,,4 | F,2 A,,2 B,,2 G,,2 | %3
 C,2 C,,2 F,,4 :: D,2 D,2 C,D,E,F, | G,2 G,,2 C,4 | D,2 D,2 C,2 C,2 | G,,2 G,,2 C,,4 | %8
 D,2 D,2 C,2 C,2 | G,,2 G,,2 C,2 C,2 | B,,2 B,,2 F,,2 F,,2 | C,2 C,,2 F,,4 :| %12

